X: 561
T: Fire on the Mountain
B: jims roots
M:4/4
L:1/8
R: breakdown
Q: 1/4=100
K:A
V:1 
%Transcribed by Nigel Gatherer
|:cd| "A"efed cAcd| efae fecd| efed cBAc|
"E"BAGB "A"A2:||:[K:D][P:B Part]FG|"D" ABAG FDFG| ABdA BAFG| ABAG FEDF|
"E" EDCE "D"D2:|[P:A ending:][K:A]cd|"A"efed cBAc|"E"BAGB "A"A2|]
% abcbook-tune_id 6298c25d75b5e15e0434c011


% abcbook-boost 0
% abcbook-tablature 
% abcbook-transpose 
% abcbook-lastupdated 1654178397958
% abcbook-soundfonts 
% abcbook-repeats 1


